X:6
T:Down by the Sally gardens
C:trad. Irish
M:4/4
K:G
GA|:"G"B2AG"D"A2Bd|"C"e3d"G"d2gd|"C"e2dB"D"A3G|G6GA:|
G6"(part 2)"d2|"G(2nd time:Em)"g2fd"C"e2g2|"D"f3e"G(2nd time:Bm)"d2Bd|
"C"e2dB"D" de ga|"G"g6GA|B2AG"D"A2Bd|"C"e3d"G"d2gd|"C"e2dB"D"A3G|
"G"G6"(part 3)"Bc|d2Bd"C"e2dB|"D"A2Bc"G"B2GB|"G"d2Bd"C"g2fe|
"D"d4z2GA|"G"B2AGA2"D"Bd|"C"e3d"G"d2gd|"C"e2dB"D"A3G|"G"G8||
